Newaita-dark/apps/48/kate.svg

<svg height="48pt" viewBox="0 0 48 48" width="48pt" xmlns="http://www.w3.org/2000/svg" xmlns:xlink="http://www.w3.org/1999/xlink"><linearGradient id="a" gradientUnits="userSpaceOnUse" x1="23.81478" x2="23.81478" y1="42.0509045" y2="44.03547050005"><stop offset="0" stop-opacity=".27451"/><stop offset="1" stop-opacity="0"/></linearGradient><linearGradient id="b"><stop offset="0" stop-opacity=".313726"/><stop offset=".222222" stop-opacity=".27451"/><stop offset="1" stop-opacity="0"/></linearGradient><radialGradient id="c" cx="450.908936" cy="189.579361" gradientTransform="matrix(.00000026 -.117199 -.210958 -.00000015 75.219128 95.392999)" gradientUnits="userSpaceOnUse" r="21.166656" xlink:href="#b"/><radialGradient id="d" cx="450.908936" cy="189.579361" gradientTransform="matrix(-.00000026 .117199 .210958 .00000015 -27.589573 -11.29122)" gradientUnits="userSpaceOnUse" r="21.166656" xlink:href="#b"/><radialGradient id="e" cx="450.908936" cy="189.579361" gradientTransform="matrix(-.00000026 -.117199 .210958 -.00000015 -27.589573 95.392999)" gradientUnits="userSpaceOnUse" r="21.166656" xlink:href="#b"/><radialGradient id="f" cx="450.908936" cy="189.579361" gradientTransform="matrix(.00000026 .117199 -.210958 .00000015 75.219126 -11.291219)" gradientUnits="userSpaceOnUse" r="21.166656" xlink:href="#b"/><linearGradient id="g"><stop offset="0" stop-color="#e0e0e0"/><stop offset="1" stop-color="#eee"/></linearGradient><linearGradient id="h" gradientTransform="matrix(.113024 0 0 .326118 -8.78102 50.462022)" gradientUnits="userSpaceOnUse" x1="288.395844" x2="288.395844" xlink:href="#g" y1="-25.791676" y2="-141.414581"/><linearGradient id="i" gradientTransform="matrix(-.113024 0 0 -.326118 79.233062 25.701477)" gradientUnits="userSpaceOnUse" x1="349.851318" x2="349.851318" xlink:href="#g" y1="-50.133408" y2="65.489502"/><linearGradient id="j" gradientUnits="userSpaceOnUse" x1="960" x2="960" y1="935.118103" y2="175.118134"><stop offset="0" stop-color="#5c6bc0"/><stop offset="1" stop-color="#7986cb"/></linearGradient><linearGradient id="k"><stop offset="0" stop-color="#cfd8dc"/><stop offset="1" stop-color="#eceff1"/></linearGradient><linearGradient id="l" gradientUnits="userSpaceOnUse" x1="254.000016" x2="254" xlink:href="#k" y1="-118.395833" y2="-134.270833"/><linearGradient id="m" gradientUnits="userSpaceOnUse" x1="206.375016" x2="206.375" xlink:href="#k" y1="-118.395833" y2="-134.270833"/><linearGradient id="n" gradientUnits="userSpaceOnUse" x1="158.750016" x2="158.75" xlink:href="#k" y1="-118.395833" y2="-134.270833"/><linearGradient id="o" gradientUnits="userSpaceOnUse" x1="349.250016" x2="349.25" xlink:href="#k" y1="-118.395833" y2="-134.270833"/><linearGradient id="p" gradientUnits="userSpaceOnUse" x1="301.625016" x2="301.625" xlink:href="#k" y1="-118.395833" y2="-134.270833"/><path d="m11.90625 42.050781h23.816406v1.984375h-23.816406zm0 0" fill="url(#a)"/><path d="m35.722656 42.050781h3.96875v-1.984375h-3.96875zm0 0" fill="url(#c)"/><path d="m11.90625 42.050781h-3.96875v1.984375h3.96875zm0 0" fill="url(#d)"/><path d="m11.90625 42.050781h-3.96875v-1.984375h3.96875zm0 0" fill="url(#e)"/><path d="m35.722656 42.050781h3.96875v1.984375h-3.96875zm0 0" fill="url(#f)"/><path d="m9.921875 4.34375h27.785156c1.097657 0 1.984375.890625 1.984375 1.984375v33.738281c0 1.097656-.886718 1.984375-1.984375 1.984375h-27.785156c-1.09375 0-1.984375-.886719-1.984375-1.984375v-33.738281c0-1.09375.890625-1.984375 1.984375-1.984375zm0 0" fill="url(#h)"/><path d="m39.691406 34.113281-8.929687 7.9375h6.945312c1.097657 0 1.984375-.886719 1.984375-1.984375zm0 0" fill="#424242" fill-opacity=".235294"/><path d="m30.761719 42.050781 8.929687-7.9375h-6.945312c-1.101563 0-1.984375.882813-1.984375 1.984375zm0 0" fill="url(#i)"/><path d="m32.746094 34.113281c-1.101563 0-1.984375.882813-1.984375 1.984375v.496094c0-1.101562.882812-1.984375 1.984375-1.984375h6.386718l.558594-.496094zm0 0" fill="#fff" fill-opacity=".784314"/><path d="m328.093663 233.498592 95.240905-84.658582h-74.076259c-11.748878 0-21.164646 9.415767-21.164646 21.164645zm0 0" fill="none" stroke="#212121" stroke-linecap="round" stroke-linejoin="round" stroke-width="3" transform="matrix(.093759 0 0 .093759 .000001 20.158198)"/><path d="m8.0625 11.910156h31.503906v1.859375h-31.503906zm0 0" fill-opacity=".235294"/><path d="m399.961827 175.101398c-44.247746 0-79.992366 35.74462-79.992366 79.992365v239.977096h1280.035311v-239.977096c0-44.247745-35.74462-79.992365-79.992366-79.992365zm0 0" fill="url(#j)" stroke="#212121" stroke-linecap="round" stroke-linejoin="round" stroke-width="11.338583" transform="scale(.0248071)"/><path d="m13.890625 21.214844h16.871094c.546875 0 .992187.382812.992187.855468v.269532c0 .472656-.445312.859375-.992187.859375h-16.871094c-.546875 0-.992187-.386719-.992187-.859375v-.269532c0-.472656.445312-.855468.992187-.855468zm0 0" fill="#ef5350" fill-opacity=".903974"/><path d="m13.890625 16.25h19.847656c.546875 0 .992188.324219.992188.726562v.535157c0 .402343-.445313.722656-.992188.722656h-19.847656c-.546875 0-.992187-.320313-.992187-.722656v-.535157c0-.402343.445312-.726562.992187-.726562zm0 0" fill="#424242" fill-opacity=".903974"/><path d="m13.890625 26.175781h19.847656c.546875 0 .992188.402344.992188.902344v.179687c0 .496094-.445313.902344-.992188.902344h-19.847656c-.546875 0-.992187-.40625-.992187-.902344v-.179687c0-.5.445312-.902344.992187-.902344zm0 0" fill="#424242" fill-opacity=".903974"/><path d="m9.921875 4.457031c-1.097656 0-1.984375.882813-1.984375 1.984375v.246094c0-1.097656.886719-1.984375 1.984375-1.984375h27.785156c1.097657 0 1.984375.886719 1.984375 1.984375v-.246094c0-1.101562-.886718-1.984375-1.984375-1.984375zm0 0" fill="#fff" fill-opacity=".392157"/><path d="m7.9375 39.675781v.390625c0 1.097656.886719 1.984375 1.984375 1.984375h27.785156c1.097657 0 1.984375-.886719 1.984375-1.984375v-.390625c0 1.101563-.886718 1.984375-1.984375 1.984375h-27.785156c-1.097656 0-1.984375-.882812-1.984375-1.984375zm0 0" fill-opacity=".235294"/><path d="m9.921875 4.203125c-1.175781 0-2.125.949219-2.125 2.125v33.738281c0 1.175782.949219 2.125 2.125 2.125h27.785156c1.175781 0 2.125-.949218 2.125-2.125v-33.738281c0-1.175781-.949219-2.125-2.125-2.125zm0 .28125h27.785156c1.023438 0 1.84375.820313 1.84375 1.84375v33.738281c0 1.023438-.820312 1.84375-1.84375 1.84375h-27.785156c-1.023437 0-1.84375-.820312-1.84375-1.84375v-33.738281c0-1.023437.820313-1.84375 1.84375-1.84375zm0 0" fill="#212121"/><path d="m13.890625 31.136719h12.902344c.546875 0 .992187.34375.992187.765625v.449218c0 .425782-.445312.769532-.992187.769532h-12.902344c-.546875 0-.992187-.34375-.992187-.769532v-.449218c0-.421875.445312-.765625.992187-.765625zm0 0" fill="#26a69a" fill-opacity=".903974"/><g stroke="#212121" stroke-linecap="round" stroke-linejoin="round" stroke-width="3"><path d="m246.059836-134.257711h15.873484c4.374582 0 7.957573 3.541329 7.957573 7.915911s-3.582991 7.957574-7.957573 7.957574h-15.873484c-4.374582 0-7.915911-3.582992-7.915911-7.957574s3.541329-7.915911 7.915911-7.915911zm0 0" fill="url(#l)" transform="matrix(.093759 0 0 .093759 0 20.158175)"/><path d="m198.439383-134.257711h15.873484c4.374583 0 7.957574 3.541329 7.957574 7.915911s-3.582991 7.957574-7.957574 7.957574h-15.873484c-4.374582 0-7.957573-3.582992-7.957573-7.957574s3.582991-7.915911 7.957573-7.915911zm0 0" fill="url(#m)" transform="matrix(.093759 0 0 .093759 0 20.158175)"/><path d="m150.818931-134.257711h15.873484c4.374582 0 7.915911 3.541329 7.915911 7.915911s-3.541329 7.957574-7.915911 7.957574h-15.873484c-4.374582 0-7.957574-3.582992-7.957574-7.957574s3.582992-7.915911 7.957574-7.915911zm0 0" fill="url(#n)" transform="matrix(.093759 0 0 .093759 0 20.158175)"/><path d="m341.300741-134.257711h15.873484c4.416245 0 7.957573 3.541329 7.957573 7.915911s-3.541328 7.957574-7.957573 7.957574h-15.873484c-4.374583 0-7.915911-3.582992-7.915911-7.957574s3.541328-7.915911 7.915911-7.915911zm0 0" fill="url(#o)" transform="matrix(.093759 0 0 .093759 0 20.158175)"/><path d="m293.680288-134.257711h15.873484c4.374583 0 7.957574 3.541329 7.957574 7.915911s-3.582991 7.957574-7.957574 7.957574h-15.873484c-4.374582 0-7.91591-3.582992-7.91591-7.957574s3.541328-7.915911 7.91591-7.915911zm0 0" fill="url(#p)" transform="matrix(.093759 0 0 .093759 0 20.158175)"/></g></svg>

<?xml version="1.0" encoding="UTF-8"?>
<svg xmlns="http://www.w3.org/2000/svg" xmlns:xlink="http://www.w3.org/1999/xlink" width="48pt" height="48pt" viewBox="0 0 48 48" version="1.1">
<defs>
<linearGradient id="linear0" gradientUnits="userSpaceOnUse" x1="254" y1="233.5" x2="254" y2="254.666672" gradientTransform="matrix(0.093759,0,0,0.093759,-0.00000572259,20.158178)">
<stop offset="0" style="stop-color:rgb(0%,0%,0%);stop-opacity:0.27451;"/>
<stop offset="1" style="stop-color:rgb(0%,0%,0%);stop-opacity:0;"/>
</linearGradient>
<radialGradient id="radial0" gradientUnits="userSpaceOnUse" cx="450.908936" cy="189.579361" fx="450.908936" fy="189.579361" r="21.166656" gradientTransform="matrix(0.000000261256,-0.117199,-0.210958,-0.000000152308,75.219128,95.392999)">
<stop offset="0" style="stop-color:rgb(0%,0%,0%);stop-opacity:0.313726;"/>
<stop offset="0.222222" style="stop-color:rgb(0%,0%,0%);stop-opacity:0.27451;"/>
<stop offset="1" style="stop-color:rgb(0%,0%,0%);stop-opacity:0;"/>
</radialGradient>
<radialGradient id="radial1" gradientUnits="userSpaceOnUse" cx="450.908936" cy="189.579361" fx="450.908936" fy="189.579361" r="21.166656" gradientTransform="matrix(-0.000000261256,0.117199,0.210958,0.000000152308,-27.589573,-11.29122)">
<stop offset="0" style="stop-color:rgb(0%,0%,0%);stop-opacity:0.313726;"/>
<stop offset="0.222222" style="stop-color:rgb(0%,0%,0%);stop-opacity:0.27451;"/>
<stop offset="1" style="stop-color:rgb(0%,0%,0%);stop-opacity:0;"/>
</radialGradient>
<radialGradient id="radial2" gradientUnits="userSpaceOnUse" cx="450.908936" cy="189.579361" fx="450.908936" fy="189.579361" r="21.166656" gradientTransform="matrix(-0.000000261256,-0.117199,0.210958,-0.000000152308,-27.589573,95.392999)">
<stop offset="0" style="stop-color:rgb(0%,0%,0%);stop-opacity:0.313726;"/>
<stop offset="0.222222" style="stop-color:rgb(0%,0%,0%);stop-opacity:0.27451;"/>
<stop offset="1" style="stop-color:rgb(0%,0%,0%);stop-opacity:0;"/>
</radialGradient>
<radialGradient id="radial3" gradientUnits="userSpaceOnUse" cx="450.908936" cy="189.579361" fx="450.908936" fy="189.579361" r="21.166656" gradientTransform="matrix(0.000000261256,0.117199,-0.210958,0.000000152308,75.219126,-11.291219)">
<stop offset="0" style="stop-color:rgb(0%,0%,0%);stop-opacity:0.313726;"/>
<stop offset="0.222222" style="stop-color:rgb(0%,0%,0%);stop-opacity:0.27451;"/>
<stop offset="1" style="stop-color:rgb(0%,0%,0%);stop-opacity:0;"/>
</radialGradient>
<linearGradient id="linear1" gradientUnits="userSpaceOnUse" x1="288.395844" y1="-25.791676" x2="288.395844" y2="-141.414581" gradientTransform="matrix(0.113024,0,0,0.326118,-8.78102,50.462022)">
<stop offset="0" style="stop-color:rgb(87.843138%,87.843138%,87.843138%);stop-opacity:1;"/>
<stop offset="1" style="stop-color:rgb(93.333334%,93.333334%,93.333334%);stop-opacity:1;"/>
</linearGradient>
<linearGradient id="linear2" gradientUnits="userSpaceOnUse" x1="349.851318" y1="-50.133408" x2="349.851318" y2="65.489502" gradientTransform="matrix(-0.113024,0,0,-0.326118,79.233062,25.701477)">
<stop offset="0" style="stop-color:rgb(87.843138%,87.843138%,87.843138%);stop-opacity:1;"/>
<stop offset="1" style="stop-color:rgb(93.333334%,93.333334%,93.333334%);stop-opacity:1;"/>
</linearGradient>
<linearGradient id="linear3" gradientUnits="userSpaceOnUse" x1="960" y1="935.118103" x2="960" y2="175.118134" gradientTransform="matrix(1,0,0,1,0,-0)">
<stop offset="0" style="stop-color:rgb(36.078432%,41.960785%,75.294119%);stop-opacity:1;"/>
<stop offset="1" style="stop-color:rgb(47.450981%,52.549022%,79.607844%);stop-opacity:1;"/>
</linearGradient>
<linearGradient id="linear4" gradientUnits="userSpaceOnUse" x1="105.833344" y1="-105.166656" x2="105.833328" y2="-121.041656" gradientTransform="matrix(1,0,0,1,148.166672,-13.229177)">
<stop offset="0" style="stop-color:rgb(81.176472%,84.705883%,86.274511%);stop-opacity:1;"/>
<stop offset="1" style="stop-color:rgb(92.54902%,93.725491%,94.509804%);stop-opacity:1;"/>
</linearGradient>
<linearGradient id="linear5" gradientUnits="userSpaceOnUse" x1="105.833344" y1="-105.166656" x2="105.833328" y2="-121.041656" gradientTransform="matrix(1,0,0,1,100.541672,-13.229177)">
<stop offset="0" style="stop-color:rgb(81.176472%,84.705883%,86.274511%);stop-opacity:1;"/>
<stop offset="1" style="stop-color:rgb(92.54902%,93.725491%,94.509804%);stop-opacity:1;"/>
</linearGradient>
<linearGradient id="linear6" gradientUnits="userSpaceOnUse" x1="105.833344" y1="-105.166656" x2="105.833328" y2="-121.041656" gradientTransform="matrix(1,0,0,1,52.916672,-13.229177)">
<stop offset="0" style="stop-color:rgb(81.176472%,84.705883%,86.274511%);stop-opacity:1;"/>
<stop offset="1" style="stop-color:rgb(92.54902%,93.725491%,94.509804%);stop-opacity:1;"/>
</linearGradient>
<linearGradient id="linear7" gradientUnits="userSpaceOnUse" x1="105.833344" y1="-105.166656" x2="105.833328" y2="-121.041656" gradientTransform="matrix(1,0,0,1,243.416672,-13.229177)">
<stop offset="0" style="stop-color:rgb(81.176472%,84.705883%,86.274511%);stop-opacity:1;"/>
<stop offset="1" style="stop-color:rgb(92.54902%,93.725491%,94.509804%);stop-opacity:1;"/>
</linearGradient>
<linearGradient id="linear8" gradientUnits="userSpaceOnUse" x1="105.833344" y1="-105.166656" x2="105.833328" y2="-121.041656" gradientTransform="matrix(1,0,0,1,195.791672,-13.229177)">
<stop offset="0" style="stop-color:rgb(81.176472%,84.705883%,86.274511%);stop-opacity:1;"/>
<stop offset="1" style="stop-color:rgb(92.54902%,93.725491%,94.509804%);stop-opacity:1;"/>
</linearGradient>
</defs>
<g id="surface1">
<path style=" stroke:none;fill-rule:nonzero;fill:url(#linear0);" d="M 11.90625 42.050781 L 35.722656 42.050781 L 35.722656 44.035156 L 11.90625 44.035156 Z M 11.90625 42.050781 "/>
<path style=" stroke:none;fill-rule:nonzero;fill:url(#radial0);" d="M 35.722656 42.050781 L 39.691406 42.050781 L 39.691406 40.066406 L 35.722656 40.066406 Z M 35.722656 42.050781 "/>
<path style=" stroke:none;fill-rule:nonzero;fill:url(#radial1);" d="M 11.90625 42.050781 L 7.9375 42.050781 L 7.9375 44.035156 L 11.90625 44.035156 Z M 11.90625 42.050781 "/>
<path style=" stroke:none;fill-rule:nonzero;fill:url(#radial2);" d="M 11.90625 42.050781 L 7.9375 42.050781 L 7.9375 40.066406 L 11.90625 40.066406 Z M 11.90625 42.050781 "/>
<path style=" stroke:none;fill-rule:nonzero;fill:url(#radial3);" d="M 35.722656 42.050781 L 39.691406 42.050781 L 39.691406 44.035156 L 35.722656 44.035156 Z M 35.722656 42.050781 "/>
<path style=" stroke:none;fill-rule:nonzero;fill:url(#linear1);" d="M 9.921875 4.34375 L 37.707031 4.34375 C 38.804688 4.34375 39.691406 5.234375 39.691406 6.328125 L 39.691406 40.066406 C 39.691406 41.164062 38.804688 42.050781 37.707031 42.050781 L 9.921875 42.050781 C 8.828125 42.050781 7.9375 41.164062 7.9375 40.066406 L 7.9375 6.328125 C 7.9375 5.234375 8.828125 4.34375 9.921875 4.34375 Z M 9.921875 4.34375 "/>
<path style=" stroke:none;fill-rule:nonzero;fill:rgb(25.882354%,25.882354%,25.882354%);fill-opacity:0.235294;" d="M 39.691406 34.113281 L 30.761719 42.050781 L 37.707031 42.050781 C 38.804688 42.050781 39.691406 41.164062 39.691406 40.066406 Z M 39.691406 34.113281 "/>
<path style=" stroke:none;fill-rule:nonzero;fill:url(#linear2);" d="M 30.761719 42.050781 L 39.691406 34.113281 L 32.746094 34.113281 C 31.644531 34.113281 30.761719 34.996094 30.761719 36.097656 Z M 30.761719 42.050781 "/>
<path style=" stroke:none;fill-rule:nonzero;fill:rgb(100%,100%,100%);fill-opacity:0.784314;" d="M 32.746094 34.113281 C 31.644531 34.113281 30.761719 34.996094 30.761719 36.097656 L 30.761719 36.59375 C 30.761719 35.492188 31.644531 34.609375 32.746094 34.609375 L 39.132812 34.609375 L 39.691406 34.113281 Z M 32.746094 34.113281 "/>
<path style="fill:none;stroke-width:3;stroke-linecap:round;stroke-linejoin:round;stroke:rgb(12.941177%,12.941177%,12.941177%);stroke-opacity:1;stroke-miterlimit:4;" d="M 328.093663 233.498592 L 423.334568 148.84001 L 349.258309 148.84001 C 337.509431 148.84001 328.093663 158.255777 328.093663 170.004655 Z M 328.093663 233.498592 " transform="matrix(0.093759,0,0,0.093759,0.000000500048,20.158198)"/>
<path style=" stroke:none;fill-rule:nonzero;fill:rgb(0%,0%,0%);fill-opacity:0.235294;" d="M 8.0625 11.910156 L 39.566406 11.910156 L 39.566406 13.769531 L 8.0625 13.769531 Z M 8.0625 11.910156 "/>
<path style="fill-rule:nonzero;fill:url(#linear3);stroke-width:11.338583;stroke-linecap:round;stroke-linejoin:round;stroke:rgb(12.941177%,12.941177%,12.941177%);stroke-opacity:1;stroke-miterlimit:4;" d="M 399.961827 175.101398 C 355.714081 175.101398 319.969461 210.846018 319.969461 255.093763 L 319.969461 495.070859 L 1600.004772 495.070859 L 1600.004772 255.093763 C 1600.004772 210.846018 1564.260152 175.101398 1520.012406 175.101398 Z M 399.961827 175.101398 " transform="matrix(0.0248071,0,0,0.0248071,0,0)"/>
<path style=" stroke:none;fill-rule:nonzero;fill:rgb(93.725491%,32.549021%,31.37255%);fill-opacity:0.903974;" d="M 13.890625 21.214844 L 30.761719 21.214844 C 31.308594 21.214844 31.753906 21.597656 31.753906 22.070312 L 31.753906 22.339844 C 31.753906 22.8125 31.308594 23.199219 30.761719 23.199219 L 13.890625 23.199219 C 13.34375 23.199219 12.898438 22.8125 12.898438 22.339844 L 12.898438 22.070312 C 12.898438 21.597656 13.34375 21.214844 13.890625 21.214844 Z M 13.890625 21.214844 "/>
<path style=" stroke:none;fill-rule:nonzero;fill:rgb(25.882354%,25.882354%,25.882354%);fill-opacity:0.903974;" d="M 13.890625 16.25 L 33.738281 16.25 C 34.285156 16.25 34.730469 16.574219 34.730469 16.976562 L 34.730469 17.511719 C 34.730469 17.914062 34.285156 18.234375 33.738281 18.234375 L 13.890625 18.234375 C 13.34375 18.234375 12.898438 17.914062 12.898438 17.511719 L 12.898438 16.976562 C 12.898438 16.574219 13.34375 16.25 13.890625 16.25 Z M 13.890625 16.25 "/>
<path style=" stroke:none;fill-rule:nonzero;fill:rgb(25.882354%,25.882354%,25.882354%);fill-opacity:0.903974;" d="M 13.890625 26.175781 L 33.738281 26.175781 C 34.285156 26.175781 34.730469 26.578125 34.730469 27.078125 L 34.730469 27.257812 C 34.730469 27.753906 34.285156 28.160156 33.738281 28.160156 L 13.890625 28.160156 C 13.34375 28.160156 12.898438 27.753906 12.898438 27.257812 L 12.898438 27.078125 C 12.898438 26.578125 13.34375 26.175781 13.890625 26.175781 Z M 13.890625 26.175781 "/>
<path style=" stroke:none;fill-rule:nonzero;fill:rgb(100%,100%,100%);fill-opacity:0.392157;" d="M 9.921875 4.457031 C 8.824219 4.457031 7.9375 5.339844 7.9375 6.441406 L 7.9375 6.6875 C 7.9375 5.589844 8.824219 4.703125 9.921875 4.703125 L 37.707031 4.703125 C 38.804688 4.703125 39.691406 5.589844 39.691406 6.6875 L 39.691406 6.441406 C 39.691406 5.339844 38.804688 4.457031 37.707031 4.457031 Z M 9.921875 4.457031 "/>
<path style=" stroke:none;fill-rule:nonzero;fill:rgb(0%,0%,0%);fill-opacity:0.235294;" d="M 7.9375 39.675781 L 7.9375 40.066406 C 7.9375 41.164062 8.824219 42.050781 9.921875 42.050781 L 37.707031 42.050781 C 38.804688 42.050781 39.691406 41.164062 39.691406 40.066406 L 39.691406 39.675781 C 39.691406 40.777344 38.804688 41.660156 37.707031 41.660156 L 9.921875 41.660156 C 8.824219 41.660156 7.9375 40.777344 7.9375 39.675781 Z M 7.9375 39.675781 "/>
<path style=" stroke:none;fill-rule:nonzero;fill:rgb(12.941177%,12.941177%,12.941177%);fill-opacity:1;" d="M 9.921875 4.203125 C 8.746094 4.203125 7.796875 5.152344 7.796875 6.328125 L 7.796875 40.066406 C 7.796875 41.242188 8.746094 42.191406 9.921875 42.191406 L 37.707031 42.191406 C 38.882812 42.191406 39.832031 41.242188 39.832031 40.066406 L 39.832031 6.328125 C 39.832031 5.152344 38.882812 4.203125 37.707031 4.203125 Z M 9.921875 4.484375 L 37.707031 4.484375 C 38.730469 4.484375 39.550781 5.304688 39.550781 6.328125 L 39.550781 40.066406 C 39.550781 41.089844 38.730469 41.910156 37.707031 41.910156 L 9.921875 41.910156 C 8.898438 41.910156 8.078125 41.089844 8.078125 40.066406 L 8.078125 6.328125 C 8.078125 5.304688 8.898438 4.484375 9.921875 4.484375 Z M 9.921875 4.484375 "/>
<path style=" stroke:none;fill-rule:nonzero;fill:rgb(14.901961%,65.098041%,60.392159%);fill-opacity:0.903974;" d="M 13.890625 31.136719 L 26.792969 31.136719 C 27.339844 31.136719 27.785156 31.480469 27.785156 31.902344 L 27.785156 32.351562 C 27.785156 32.777344 27.339844 33.121094 26.792969 33.121094 L 13.890625 33.121094 C 13.34375 33.121094 12.898438 32.777344 12.898438 32.351562 L 12.898438 31.902344 C 12.898438 31.480469 13.34375 31.136719 13.890625 31.136719 Z M 13.890625 31.136719 "/>
<path style="fill-rule:nonzero;fill:url(#linear4);stroke-width:3;stroke-linecap:round;stroke-linejoin:round;stroke:rgb(12.941177%,12.941177%,12.941177%);stroke-opacity:1;stroke-miterlimit:4;" d="M 246.059836 -134.257711 L 261.93332 -134.257711 C 266.307902 -134.257711 269.890893 -130.716382 269.890893 -126.3418 C 269.890893 -121.967218 266.307902 -118.384226 261.93332 -118.384226 L 246.059836 -118.384226 C 241.685254 -118.384226 238.143925 -121.967218 238.143925 -126.3418 C 238.143925 -130.716382 241.685254 -134.257711 246.059836 -134.257711 Z M 246.059836 -134.257711 " transform="matrix(0.093759,0,0,0.093759,0,20.158175)"/>
<path style="fill-rule:nonzero;fill:url(#linear5);stroke-width:3;stroke-linecap:round;stroke-linejoin:round;stroke:rgb(12.941177%,12.941177%,12.941177%);stroke-opacity:1;stroke-miterlimit:4;" d="M 198.439383 -134.257711 L 214.312867 -134.257711 C 218.68745 -134.257711 222.270441 -130.716382 222.270441 -126.3418 C 222.270441 -121.967218 218.68745 -118.384226 214.312867 -118.384226 L 198.439383 -118.384226 C 194.064801 -118.384226 190.48181 -121.967218 190.48181 -126.3418 C 190.48181 -130.716382 194.064801 -134.257711 198.439383 -134.257711 Z M 198.439383 -134.257711 " transform="matrix(0.093759,0,0,0.093759,0,20.158175)"/>
<path style="fill-rule:nonzero;fill:url(#linear6);stroke-width:3;stroke-linecap:round;stroke-linejoin:round;stroke:rgb(12.941177%,12.941177%,12.941177%);stroke-opacity:1;stroke-miterlimit:4;" d="M 150.818931 -134.257711 L 166.692415 -134.257711 C 171.066997 -134.257711 174.608326 -130.716382 174.608326 -126.3418 C 174.608326 -121.967218 171.066997 -118.384226 166.692415 -118.384226 L 150.818931 -118.384226 C 146.444349 -118.384226 142.861357 -121.967218 142.861357 -126.3418 C 142.861357 -130.716382 146.444349 -134.257711 150.818931 -134.257711 Z M 150.818931 -134.257711 " transform="matrix(0.093759,0,0,0.093759,0,20.158175)"/>
<path style="fill-rule:nonzero;fill:url(#linear7);stroke-width:3;stroke-linecap:round;stroke-linejoin:round;stroke:rgb(12.941177%,12.941177%,12.941177%);stroke-opacity:1;stroke-miterlimit:4;" d="M 341.300741 -134.257711 L 357.174225 -134.257711 C 361.59047 -134.257711 365.131798 -130.716382 365.131798 -126.3418 C 365.131798 -121.967218 361.59047 -118.384226 357.174225 -118.384226 L 341.300741 -118.384226 C 336.926158 -118.384226 333.38483 -121.967218 333.38483 -126.3418 C 333.38483 -130.716382 336.926158 -134.257711 341.300741 -134.257711 Z M 341.300741 -134.257711 " transform="matrix(0.093759,0,0,0.093759,0,20.158175)"/>
<path style="fill-rule:nonzero;fill:url(#linear8);stroke-width:3;stroke-linecap:round;stroke-linejoin:round;stroke:rgb(12.941177%,12.941177%,12.941177%);stroke-opacity:1;stroke-miterlimit:4;" d="M 293.680288 -134.257711 L 309.553772 -134.257711 C 313.928355 -134.257711 317.511346 -130.716382 317.511346 -126.3418 C 317.511346 -121.967218 313.928355 -118.384226 309.553772 -118.384226 L 293.680288 -118.384226 C 289.305706 -118.384226 285.764378 -121.967218 285.764378 -126.3418 C 285.764378 -130.716382 289.305706 -134.257711 293.680288 -134.257711 Z M 293.680288 -134.257711 " transform="matrix(0.093759,0,0,0.093759,0,20.158175)"/>
</g>
</svg>
